X: 11
T: The Maid At The Well
R: jig
M: 6/8
L: 1/8
K: Gmaj
|:GED D3|GEG c2e|dBG GAB|AGE {A}E3|
GED D3|GEG c2e|dBG GAB|1AGF G3:|2 AGF G2d||
|:gdB GBd|gdB c2e|dBG GAB|AGE {A}E3|
gdB GBd|gdB c2e|dBG GAB|AGf g3|
gdB GBd|gdB c2e|dBG GAB|AGE {A}E3|
GED D3|GEG c2e|dBG GAB|AGF G3||


Tune 752	Setting 752

